client/src/assets/my_course_icon.svg

<svg width="18" height="22" viewBox="0 0 18 22" fill="none" xmlns="http://www.w3.org/2000/svg">
<path d="M1 11V3C1 1.89543 1.8954 1 3 1H15C16.1046 1 17 1.89543 17 3V19C17 20.1046 16.1046 21 15 21H3C1.8954 21 1 20.1046 1 19V17.5" stroke="#1C274C" stroke-width="1.8" stroke-linecap="round" stroke-linejoin="round"/>
<path d="M8 1V13L4.1818 10L1 13V4" stroke="#1C274C" stroke-width="1.8" stroke-linecap="round" stroke-linejoin="round"/>
</svg>

<?xml version="1.0" encoding="UTF-8"?>
<svg id="Layer_1" xmlns="http://www.w3.org/2000/svg" width="18" height="22" version="1.1" viewBox="0 0 18 22">
  <!-- Generator: Adobe Illustrator 29.8.1, SVG Export Plug-In . SVG Version: 2.1.1 Build 2)  -->
  <defs>
    <style>
      .st0 {
        fill: none;
        stroke: #2a2627;
        stroke-linecap: round;
        stroke-linejoin: round;
        stroke-width: 1.8px;
      }
    </style>
  </defs>
  <path class="st0" d="M1,11V3c0-1.1.9-2,2-2h12c1.1,0,2,.9,2,2v16c0,1.1-.9,2-2,2H3c-1.1,0-2-.9-2-2v-1.5"/>
  <path class="st0" d="M8,1v12l-3.82-3-3.18,3V4"/>
</svg>
